dist/img/hand_4.svg

<svg width="54" height="70" viewBox="0 0 54 70" fill="none" xmlns="http://www.w3.org/2000/svg">
<path d="M45.8034 47.4399L46.155 34.7807L51.8425 9.81379C53.2491 2.46158 44.8096 1.75828 43.403 8.40722L36.3089 32.6708L35.6668 7.00065C34.9635 -0.351633 26.8145 1.05486 26.8145 7.00062V31.9675L21.9526 9.14282C19.491 2.10989 12.8098 3.86812 13.5131 10.901L17.0294 34.7807L9.64489 17.2307C7.47398 11.6043 -0.20118 12.3076 2.61201 20.3955L6.92304 37.9455L7.97798 48.0657C12.5494 67.0545 18.1757 67.4062 25.9119 68.1095C39.9778 67.4062 42.6386 60.3733 46.155 56.1535C49.3785 52.2854 47.0928 49.1982 45.8034 47.4399ZM45.8034 47.4399L30.331 37.9455C26.9551 34.851 24.2357 35.9528 23.298 36.8905C21.0475 39.7036 22.8292 44.3923 24.0013 46.385L32.7925 54.4729" stroke="#353535" stroke-width="3" stroke-linecap="round" stroke-linejoin="round"/>
</svg>

<svg width="54" height="70" fill="none" xmlns="http://www.w3.org/2000/svg"><path d="M45.803 47.44l.352-12.66 5.688-24.966c1.406-7.352-7.033-8.056-8.44-1.407l-7.094 24.264L35.667 7c-.703-7.353-8.853-5.946-8.853 0v24.967L21.953 9.143C19.49 2.11 12.81 3.868 13.513 10.9l3.516 23.88-7.384-17.55c-2.171-5.627-9.846-4.923-7.033 3.164l4.311 17.55 1.055 10.12c4.571 18.99 10.198 19.341 17.934 20.044 14.066-.703 16.727-7.736 20.243-11.955 3.224-3.869.938-6.956-.352-8.714zm0 0l-15.472-9.494c-3.376-3.095-6.095-1.993-7.033-1.055-2.25 2.813-.469 7.501.703 9.494l8.791 8.088" stroke="#353535" stroke-width="3" stroke-linecap="round" stroke-linejoin="round"/></svg>
